!!!OTL: NACH KREUZ UND AUSGESTANDNEN LEIDEN
!!!ARE: Europa, Mitteleuropa, Deutschland, Bayern
!!!SCT: E1764
!!!YEM: Copyright 1995, estate of Helmut Schaffrath.
**kern
*ICvox
*Ivox
!! Mixed meters:  4/4; 6/8
*M4/4
*k[f#]
*G:
{8d
=1
4.g
8g
8g
8g
8g
8b
=2
4a
4g
4b
8r}
{8g
=3
4.g
8g
8g
8g
8g
8a
=4
*M6/8
4e
4d
4a}
=5
{8d
8d
=6
*M4/4
8a
8g
4cc#
8r}
{8g
8g
16g
16g
=7
4b
4a
4dd
8r}
{16b
16cc
=8
*M6/8
8dd
8b
8gg
8ee
8cc
8gg
=9
4.dd
4r}
{8cc
=10
8b
8b
16b
16b
8dd
8dd
8a
=11
4.g
4r}
{16b
16cc
=12
8dd
8b
8gg
8ee
8cc
8gg
=13
4.dd
4r}
{8cc
=14
8b
8b
16b
16b
8dd
8dd
8a
=15
4.g
4r}
==
!!!AGN: Spott - Lied auf Bauern. +++ Z. 263 dem Metrum angepasst! +++
!!!ONB: ESAC (Essen Associative Code) Database: ERK3
!!!AMT: irregular
!!!AIN: vox
!!!EED: Helmut Schaffrath
!!!EEV: 1.0
*-
